public/images/icons/32x32/participer_32_purple.svg

<svg height="32" viewBox="0 0 32 32" width="32" xmlns="http://www.w3.org/2000/svg"><g fill="#1e1169" stroke="#1e1169" stroke-width=".3" transform="matrix(-1 0 0 1 26 6)"><path d="m5.78086957 3.31782609c-.59978261 0-1.16391305.23347826-1.58826087.65782608-.87543479.87565218-.87543479 2.30065218 0 3.17630435.42434782.42413044.98826087.6576087 1.58804347.6576087.6 0 1.16391305-.23369565 1.58804348-.65782609.87565218-.87565217.87565218-2.30043478 0-3.17608696-.42391304-.42413043-.98804348-.65782608-1.58782608-.65782608zm.97326086 3.21913043c-.26.26-.60565217.40304348-.97326086.40304348-.3676087 0-.71326087-.14304348-.97326087-.40304348-.53652174-.53673913-.53652174-1.40978261 0-1.94652174.26-.26.60565217-.40304348.97326087-.40304348.36760869 0 .71326086.14304348.97326086.40304348.53652174.53673913.53652174 1.40978261 0 1.94652174z"/><path d="m15.6430435 12.6902174-.4606522-.4606522.1084783-.1084782c.3726087-.3726087.4515217-.9519566.1919565-1.4093479-.0969565-.1708695-.22-.383913-.3645652-.6282608l1.9434782-.3434783c.131087-.02304348.2443479-.105.3071739-.22217391.0630435-.11717392.0689131-.25673913.016087-.37869566l-.6684783-1.54326086c-.2206521-.50913044-.6995652-.8702174-1.2497826-.94217392l-2.8515217-.37282608c-1.4297826-1.94434783-3.20152175-3.96956522-4.99717392-5.04869566-1.39739131-.83956521-4.45695652-1.13108695-6.15652174-1.23-.34978261-.02065217-.68717391.11565218-.92391304.36673913-.22434783.2376087-.33739131.54847826-.31847826.87543479.09913043 1.69956521.39043478 4.75913043 1.22999999 6.15652174 1.07891305 1.79565217 3.10434783 3.56760873 5.04869566 4.99717393l.37282608 2.8515217c.07195653.5502174.43304348 1.0291305.94217392 1.2497826l1.54326087.6686957c.05521739.023913.11413043.0358695.17282608.0358695.07108696 0 .14173913-.0173913.20586957-.0519565.11717391-.0630435.19913043-.1763043.22217391-.3071739l.34347828-1.9434783c.2443478.1443479.4576087.2676087.6284782.3645653.1763044.1.376087.1528261.5782609.1528261.3134783 0 .6086957-.1223914.831087-.3447827l.1084782-.1084782.4608696.4608695c.225.225.5241304.3486957.8423913.3486957.3180435 0 .6171739-.123913.8421739-.348913l1.0513044-1.051087c.463913-.4647826.463913-1.2204348-.0004348-1.6847826zm-.2889131-5.17456523c.2486957.0326087.465.19565218.5645653.42565218l.4497826 1.03804348-1.7323913.30630434c-.3702174-.59956521-.82-1.29869565-1.331087-2.03782608zm-6.15760866 8.63565213-1.03804348-.4497826c-.23-.0995652-.39304348-.3158695-.42565217-.5645652l-.26782609-2.0491304c.73913043.5110869 1.43804348.9606522 2.03782609 1.3310869zm2.31043476-1.6023913c-.0519565 0-.1034782-.0136956-.148913-.0395652-1.64630437-.9347826-7.17239133-4.2426087-9.16347828-7.55652171-.77130435-1.28391305-1.03130435-4.45521739-1.10739131-5.75913044-.005-.08543478.02434783-.16652174.0826087-.22826087.05804348-.06130434.13608696-.09543478.23869565-.09543478h.00239131c1.30391304.07608696 4.47521739.33586957 5.75913043 1.1073913 3.313913 1.99108696 6.6215217 7.51717392 7.5565217 9.1634783.067174.1180434.046087.2682608-.0506521.3652174l-.4154348.4154347c-.0002174.0002174-.0004348.0002174-.0006522.0004348l-2.1208696 2.1208696c-.0002173.0002174-.0002173.0004348-.0004347.0006522l-.4154348.4154347c-.0580435.0580435-.1347826.09-.216087.09zm3.5213044-.788913-1.051087 1.051087c-.1215217.1215217-.3334782.1215217-.4547826 0l-.4606522-.4608696 1.5058696-1.5058696.4606522.4606522c.1252174.1254348.1252174.3295652 0 .455zm3.8921739 1.5423913c-.4541305-.4541304-1.0580435-.7043478-1.7004348-.7043478s-1.2463043.2502174-1.7004348.7043478c-.4541304.4541304-.7043478 1.0580435-.7043478 1.7004348s.2502174 1.2463043.7043478 1.7004348c.7778261.7780434 2.8976087.8619565 3.7726087.8619565l.0606522-.0002174c.2356522-.0032609.4260869-.1934783.4293478-.4293478.0063044-.4897826-.0058696-2.9776087-.8617391-3.8332609zm-2.786087 2.7863044c-.29-.29-.4495652-.6754348-.4495652-1.0856522s.1595652-.7956522.4495652-1.0856522.6754348-.4495652 1.0856522-.4495652.7956522.1595652 1.0856522.4495652c.3841304.3841304.57 1.7276087.6023913 2.7723913-1.1421739-.0352174-2.3991305-.2267391-2.7736957-.6010869z"/></g></svg>

<?xml version="1.0" encoding="UTF-8"?>
<svg width="32px" height="32px" viewBox="0 0 32 32" version="1.1" xmlns="http://www.w3.org/2000/svg" xmlns:xlink="http://www.w3.org/1999/xlink">
    <title>icone/32x32/rocket_32_purple</title>
    <g id="icone/32x32/rocket_32_purple" stroke="none" stroke-width="1" fill="none" fill-rule="evenodd">
        <g id="noun_Rocket_881941" transform="translate(16.000000, 16.000000) scale(-1, 1) translate(-16.000000, -16.000000) translate(6.000000, 6.000000)" fill="#1E1169" fill-rule="nonzero" stroke="#1E1169" stroke-width="0.3">
            <path d="M5.78086957,3.31782609 C5.18108696,3.31782609 4.61695652,3.55130435 4.1926087,3.97565217 C3.31717391,4.85130435 3.31717391,6.27630435 4.1926087,7.15195652 C4.61695652,7.57608696 5.18086957,7.80956522 5.78065217,7.80956522 C6.38065217,7.80956522 6.94456522,7.57586957 7.36869565,7.15173913 C8.24434783,6.27608696 8.24434783,4.85130435 7.36869565,3.97565217 C6.94478261,3.55152174 6.38065217,3.31782609 5.78086957,3.31782609 Z M6.75413043,6.53695652 C6.49413043,6.79695652 6.14847826,6.94 5.78086957,6.94 C5.41326087,6.94 5.0676087,6.79695652 4.8076087,6.53695652 C4.27108696,6.00021739 4.27108696,5.12717391 4.8076087,4.59043478 C5.0676087,4.33043478 5.41326087,4.1873913 5.78086957,4.1873913 C6.14847826,4.1873913 6.49413043,4.33043478 6.75413043,4.59043478 C7.29065217,5.12717391 7.29065217,6.00021739 6.75413043,6.53695652 Z" id="Shape"></path>
            <path d="M15.6430435,12.6902174 L15.1823913,12.2295652 L15.2908696,12.121087 C15.6634783,11.7484783 15.7423913,11.1691304 15.4828261,10.7117391 C15.3858696,10.5408696 15.2628261,10.3278261 15.1182609,10.0834783 L17.0617391,9.74 C17.1928261,9.71695652 17.306087,9.635 17.368913,9.51782609 C17.4319565,9.40065217 17.4378261,9.26108696 17.385,9.13913043 L16.7165217,7.59586957 C16.4958696,7.08673913 16.0169565,6.72565217 15.4667391,6.65369565 L12.6152174,6.28086957 C11.1854348,4.33652174 9.41369565,2.31130435 7.61804348,1.23217391 C6.22065217,0.392608696 3.16108696,0.101086957 1.46152174,0.00217391304 C1.11173913,-0.0184782609 0.774347826,0.117826087 0.537608696,0.368913043 C0.31326087,0.606521739 0.200217391,0.917391304 0.219130435,1.24434783 C0.31826087,2.94391304 0.609565217,6.00347826 1.44913043,7.40086957 C2.52804348,9.19652174 4.55347826,10.9684783 6.49782609,12.3980435 L6.87065217,15.2495652 C6.9426087,15.7997826 7.30369565,16.2786957 7.81282609,16.4993478 L9.35608696,17.1680435 C9.41130435,17.1919565 9.47021739,17.203913 9.52891304,17.203913 C9.6,17.203913 9.67065217,17.1865217 9.73478261,17.1519565 C9.85195652,17.088913 9.93391304,16.9756522 9.95695652,16.8447826 L10.3004348,14.9013043 C10.5447826,15.0456522 10.7580435,15.168913 10.928913,15.2658696 C11.1052174,15.3658696 11.305,15.4186957 11.5071739,15.4186957 C11.8206522,15.4186957 12.1158696,15.2963043 12.3382609,15.073913 L12.4467391,14.9654348 L12.9076087,15.4263043 C13.1326087,15.6513043 13.4317391,15.775 13.75,15.775 C14.0680435,15.775 14.3671739,15.651087 14.5921739,15.426087 L15.6434783,14.375 C16.1073913,13.9102174 16.1073913,13.1545652 15.6430435,12.6902174 L15.6430435,12.6902174 Z M15.3541304,7.51565217 C15.6028261,7.54826087 15.8191304,7.71130435 15.9186957,7.94130435 L16.3684783,8.97934783 L14.636087,9.28565217 C14.2658696,8.68608696 13.816087,7.98695652 13.305,7.24782609 L15.3541304,7.51565217 Z M9.19652174,16.1513043 L8.15847826,15.7015217 C7.92847826,15.6019565 7.76543478,15.3856522 7.73282609,15.1369565 L7.465,13.0878261 C8.20413043,13.598913 8.90304348,14.0484783 9.50282609,14.418913 L9.19652174,16.1513043 Z M11.5069565,14.548913 C11.455,14.548913 11.4034783,14.5352174 11.3580435,14.5093478 C9.71173913,13.5745652 4.18565217,10.2667391 2.19456522,6.95282609 C1.42326087,5.66891304 1.16326087,2.4976087 1.08717391,1.19369565 C1.08217391,1.10826087 1.11152174,1.02717391 1.16978261,0.965434783 C1.22782609,0.904130435 1.30586957,0.87 1.40847826,0.87 L1.41086957,0.87 C2.71478261,0.946086957 5.88608696,1.20586957 7.17,1.9773913 C10.483913,3.96847826 13.7915217,9.49456522 14.7265217,11.1408696 C14.7936957,11.258913 14.7726087,11.4091304 14.6758696,11.506087 L14.2604348,11.9215217 C14.2602174,11.9217391 14.26,11.9217391 14.2597826,11.9219565 L12.138913,14.0428261 C12.1386957,14.0430435 12.1386957,14.0432609 12.1384783,14.0434783 L11.7230435,14.458913 C11.665,14.5169565 11.5882609,14.548913 11.5069565,14.548913 L11.5069565,14.548913 Z M15.0282609,13.76 L13.9771739,14.811087 C13.8556522,14.9326087 13.6436957,14.9326087 13.5223913,14.811087 L13.0617391,14.3502174 L14.5676087,12.8443478 L15.0282609,13.305 C15.1534783,13.4304348 15.1534783,13.6345652 15.0282609,13.76 L15.0282609,13.76 Z" id="Shape"></path>
            <path d="M18.9204348,15.3023913 C18.4663043,14.8482609 17.8623913,14.5980435 17.22,14.5980435 C16.5776087,14.5980435 15.9736957,14.8482609 15.5195652,15.3023913 C15.0654348,15.7565217 14.8152174,16.3604348 14.8152174,17.0028261 C14.8152174,17.6452174 15.0654348,18.2491304 15.5195652,18.7032609 C16.2973913,19.4813043 18.4171739,19.5652174 19.2921739,19.5652174 L19.3528261,19.565 C19.5884783,19.5617391 19.778913,19.3715217 19.7821739,19.1356522 C19.7884783,18.6458696 19.7763043,16.1580435 18.9204348,15.3023913 L18.9204348,15.3023913 Z M16.1343478,18.0886957 C15.8443478,17.7986957 15.6847826,17.4132609 15.6847826,17.0030435 C15.6847826,16.5928261 15.8443478,16.2073913 16.1343478,15.9173913 C16.4243478,15.6273913 16.8097826,15.4678261 17.22,15.4678261 C17.6302174,15.4678261 18.0156522,15.6273913 18.3056522,15.9173913 C18.6897826,16.3015217 18.8756522,17.645 18.9080435,18.6897826 C17.7658696,18.6545652 16.508913,18.4630435 16.1343478,18.0886957 Z" id="Shape"></path>
        </g>
    </g>
</svg>
